src/dsmComponents/Icons/edit-1-12px.svg

<?xml version="1.0" encoding="UTF-8"?>
<svg width="12px" height="12px" viewBox="0 0 12 12" version="1.1" xmlns="http://www.w3.org/2000/svg" xmlns:xlink="http://www.w3.org/1999/xlink">
    <!-- Generator: Sketch 59.1 (86144) - https://sketch.com -->
    <title>edit-1-12px</title>
    <desc>Created with Sketch.</desc>
    <defs>
        <path d="M4,1 L4,3 L2,3 L2,10 L9,10 L9,8 L11,8 L11,11 C11,11.5522847 10.5522847,12 10,12 L10,12 L1,12 C0.44771525,12 0,11.5522847 0,11 L0,11 L0,2 C0,1.44771525 0.44771525,1 1,1 L1,1 L4,1 Z M10.584,-0.000373564031 C10.9580266,-0.000373564031 11.3167056,0.148341002 11.581,0.413 L11.581,0.413 C11.851659,0.683294378 12.0003736,1.04197339 12.0003736,1.416 C12.0003736,1.79002661 11.851659,2.14870562 11.587,2.413 L11.587,2.413 L7,7 L4,8 L5,5 L9.587,0.413 C9.85129438,0.148341002 10.2099734,-0.000373564031 10.584,-0.000373564031 Z" id="path-1"></path>
    </defs>
    <g id="Final" stroke="none" stroke-width="1" fill="none" fill-rule="evenodd">
        <g id="All-Nucleo-Icons" transform="translate(-174.000000, -2843.000000)">
            <g id="Solo/Nucleo/12px/edit-1" transform="translate(168.000000, 2837.000000)">
                <g id="n-edit" transform="translate(6.000000, 6.000000)">
                    <mask id="mask-2" fill="white">
                        <use xlink:href="#path-1"></use>
                    </mask>
                    <use id="Path-6" fill="#000000" fill-rule="nonzero" xlink:href="#path-1"></use>
                    <g id="colour/neutral/chia" mask="url(#mask-2)" fill="#737373">
                        <g transform="translate(-26.000000, -26.000000)" id="Colour">
                            <rect x="0" y="0" width="64" height="64"></rect>
                        </g>
                    </g>
                </g>
            </g>
        </g>
    </g>
</svg>

<svg width="12" height="12" xmlns="http://www.w3.org/2000/svg" xmlns:xlink="http://www.w3.org/1999/xlink"><defs><path d="M4 1v2H2v7h7V8h2v3a1 1 0 01-1 1H1a1 1 0 01-1-1V2a1 1 0 011-1h3zm6.584-1c.374 0 .733.148.997.413a1.409 1.409 0 01.006 2L7 7 4 8l1-3L9.587.413C9.851.148 10.21 0 10.584 0z" id="edit-1-12px_svg__a"/></defs><use fill="#737373" xlink:href="#edit-1-12px_svg__a" fill-rule="evenodd"/></svg>
